static/images/networks/arbitrum.svg

<svg width="512" height="512" viewBox="0 0 512 512" fill="none" xmlns="http://www.w3.org/2000/svg">
<path d="M309.487 294.935L259.072 379.938L335.409 499.373C363.532 490.196 389.975 476.175 413.487 457.827L309.487 294.935Z" fill="#28A0F0"/>
<path d="M368.8 195.072L324.909 268.781L432.505 441.424C451.559 422.37 471.814 396.216 483.87 372.669L368.8 195.072Z" fill="#28A0F0"/>
<path fill-rule="evenodd" clip-rule="evenodd" d="M512 256C512 296.949 502.189 336.886 483.87 372.669L368.8 195.072L324.909 268.781L432.505 441.424C426.413 447.223 420.065 452.694 413.487 457.827L309.487 294.935L259.072 379.938L335.409 499.373C310.002 507.663 283.225 512 256 512C223.796 512 192.218 505.932 162.795 494.43L355.84 170.611L268.602 171.205L94.8093 454.882C87.9248 449.302 81.3044 443.343 74.9807 437.019L243.677 170.611L210.444 170.018C182.551 169.424 151.692 176.545 138.042 199.093L27.2556 370.944C9.49855 335.604 0 296.292 0 256C0 188.105 26.9714 122.99 74.9807 74.9807C122.99 26.9714 188.105 0 256 0C323.895 0 389.01 26.9714 437.019 74.9807C485.029 122.99 512 188.105 512 256Z" fill="#253046"/>
<path d="M355.84 170.611L268.602 171.205L94.8093 454.882C115.401 471.572 138.355 484.876 162.795 494.43L355.84 170.611Z" fill="white"/>
<path d="M27.2556 370.944C39.4208 395.155 55.462 417.501 74.9807 437.019L243.677 170.611L210.444 170.018C182.551 169.424 151.692 176.545 138.042 199.093L27.2556 370.944Z" fill="white"/>
</svg>

<svg xmlns="http://www.w3.org/2000/svg" fill="none" viewBox="0 0 512 512"><path fill="#28A0F0" d="m309.487 294.935-50.415 85.003 76.337 119.435a256.003 256.003 0 0 0 78.078-41.546l-104-162.892Zm59.313-99.863-43.891 73.709 107.596 172.643c19.054-19.054 39.309-45.208 51.365-68.755L368.8 195.072Z"/><path fill="#253046" fill-rule="evenodd" d="M512 256c0 40.949-9.811 80.886-28.13 116.669L368.8 195.072l-43.891 73.709 107.596 172.643a256.007 256.007 0 0 1-19.018 16.403l-104-162.892-50.415 85.003 76.337 119.435A255.94 255.94 0 0 1 256 512a255.942 255.942 0 0 1-93.205-17.57L355.84 170.611l-87.238.594L94.809 454.882a255.978 255.978 0 0 1-19.828-17.863l168.696-266.408-33.233-.593c-27.893-.594-58.752 6.527-72.402 29.075L27.256 370.944A256 256 0 1 1 512 256Z" clip-rule="evenodd"/><path fill="#fff" d="m355.84 170.611-87.238.594L94.809 454.882a255.986 255.986 0 0 0 67.986 39.548L355.84 170.611ZM27.256 370.944a255.908 255.908 0 0 0 47.725 66.075l168.696-266.408-33.233-.593c-27.893-.594-58.752 6.527-72.402 29.075L27.256 370.944Z"/></svg>
